X:193
T:The Mug Of Brown Ale
R:jig
M:6/8
L:1/8
K:Ador
eAA fAA|~g3 age|dBA GFG|BAB dBd
eAA fAA|gfg age|dBd gdB|1BAG Agf:|2BAG A2d||
efg ~a3|aba age|dBd g2f|gag ged|
efg aba|aba age|dBd gdB|1BAG A2d:|2BAG Agf||

